X:1
T:Coachella, 87.87.87 D
T:Coachella, 87.87.87 D
T:William Cassell, 1884
T:Public Domain Courtesy of the Cyber Hymnal™
C:William Cassell, 1884
Z:Public Domain
Z:Courtesy of the Cyber Hymnal™
%%score ( 1 2 ) ( 3 4 )
L:1/8
Q:1/4=108
M:4/4
K:Eb
V:1 treble 
V:2 treble 
V:3 bass 
V:4 bass 
V:1
 [EG]2 [GB]2 [FA]2 [Ac]2 | [GB]2 [Ge]2 [Bd]2 [Ac]2 | [GB]3 [Ec] [EB][EB][DA][EG] | [DF]6 z2 | %4
 [EG]2 [GB]2 [FA]2 [Ac]2 | [GB]2 [Ge]2 [Bd]2 [Ac]2 | [GB]3 [GB] [Ac][AB][Ac][Ad] | [Ge]6 z2 | %8
 [EG]2 [Ge]2 [Fd]2 [FG]2 | [EF]2 [Ec]2 [EB]2 E2 | [Ec]3 [Ec] [EB][EB][DA][EG] | [DF]6 z2 | %12
 [EG]3 [EG] [EG][EG][EG][EG] | [EA]2 [EA]2 [E=A]2 [EA]2 | [EB] [EG]3 [DF]3 E | E6 Gc | %16
 (z2 [Ac])[AB] [Ac][Ad] x2 | [Ge]4 [GB]2 Gc | (z2 [AB])[AB] [Ac][Ad] x2 | [Ge]6 [GB][GB] | %20
 [Ge]3 [Ge] [Bd]2 [Ac]2 | [GB]2 [EG]2 E2 [EF]2 | [EG] [B,E]3 [B,F]3 [B,E] | [B,E]6 z2 |] %24
V:2
 x8 | x8 | x8 | x8 | x8 | x8 | x8 | x8 | x8 | x6 E2 | x8 | x8 | x8 | x8 | x7 E | E6 x2 | %16
 c4- A A x2 | x8 | B4- A A x2 | x8 | x8 | x4 E2 x2 | x8 | x8 |] %24
V:3
 [E,B,]2 [E,B,]2 [F,B,]2 [F,B,]2 | [G,E]2 [G,E]2 [A,E]2 A,2 | [E,B,]3 A, [G,B,][G,B,][F,B,][E,B,] | %3
 [B,,B,]6 z2 | [E,B,]2 [E,B,]2 [F,B,]2 [F,B,]2 | [G,E]2 [G,E]2 [A,E]2 [A,E]2 | %6
 [B,E]3 B, [B,,B,][B,,B,][B,,B,][B,,B,] | [E,B,]6 z2 | [C,C]2 [C,C]2 [G,=B,]2 [G,B,]2 | %9
 [A,C]2 A,2 [G,B,]2 [G,B,]2 | A,3 A, [G,B,][G,B,][F,B,][E,B,] | [B,,B,]6 z2 | %12
 [E,B,]3 [E,B,] [E,B,][E,B,][_D,B,][D,B,] | [C,A,]2 [C,A,]2 [_C,^F,]2 [C,F,]2 | %14
 [B,,G,] [B,,B,]3 [B,,A,]3 [E,G,] | [E,G,]6 z2 | z2 ([B,,B,][B,,B,] [B,,B,])[B,,B,][B,,B,][B,,B,] | %17
 [E,B,]4 [E,E]2 z2 | z2 ([B,,B,][B,,B,] [B,,B,])[B,,B,][B,,B,][B,,B,] | [E,B,]6 [E,E][E,E] | %20
 [E,B,]3 [E,B,] [E,C]2 [E,D]2 | [E,E]2 [E,B,]2 [C,=A,]2 [C,A,]2 | %22
 [B,,B,] [B,,G,]3 [B,,A,]3 [E,G,] | [E,G,]6 z2 |] %24
V:4
 x8 | x6 A,2 | x3 A, x4 | x8 | x8 | x8 | x3 B, x4 | x8 | x8 | x2 A,2 x4 | A,3 A, x4 | x8 | x8 | %13
 x8 | x8 | x8 | x8 | x8 | x8 | x8 | x8 | x8 | x8 | x8 |] %24

